X: 15392
T: Glass Of Beer, The
R: reel
M: 4/4
K: Cdorian
ef|gc c2 gcbc|gc c2 f2 ef|gc c2 gagf|egbg f2 ef|
gc c2 gcbc|gc c2 f2 ef|gc c2 gagf|egbg f2 gf||
e3f g3f|efge fecB|edef gfgf|egbg f2 gf|
e3f g3f|efge fecB|edef gfgf|egbg f2 ef||

